X: 1
B: Cole's 1000 Fiddle Tunes
T:KILWINNING'S STEEPLE -- REEL.
R:reel
C:SCOTCH.
B:Coles 43.3
Z:John Walsh <walsh:mat:h.ubc.ca>
M:C|
L:1/8
Z: Contributed 20000514053228 by John Walsh walsh:mat:h.ubc.ca
K:A
ug|va2(ec) defg|afec dBBg|a2 (ec) defg|(af)ec (3AAA Ag|
a2(ec) defg|afec dBBg|a2 (ec) defg|(af)ec (3AAA A|]
uB|vc2 (cA) d2 (dB)|efec dBBd|c2 (cA) defg|afec A2 (AB)|
c2 (cA) d2 (dB)|efec dBBd|ceae defg|afec A2A|]

